X: 327
%
U:~=!turn!
T: The Lasses of Stewarton
C:
O:Scotland
B:Keith Norman MacDonald : "The Skye collection of the best reels & strathspeys extant" : 1887
Z:Ralph Palmer
R:Reel
M:C|
L:1/8
K:G lydian
{/f}g !segno!|| fdec dA {/c}d2 | {/G}FDDF A3 g | fde=c BG {AB}c2 | E=CCE {/F}G2 G::
=c | B{/c}d (BG) AFD=c | B{/c}d AF A3 =c | B{/c}d AF AB=cA | {/F}GE=CE {/F}G2 G ::
=c | BGAF BGAG | {/G}FDDF A3 =c | BGAF AB=cA | {/F}GE(=CE) {/F}G2 G ::
 e | {/c}defg afdf | afdf {fg}a2 (fe) | {/c}defg afdf | ge=ce {ef}g2 fe |
{/c}defg afdf | afdf {fg}a2 fe | {/c}defg abaf | {/f}ge=ce gbeg !segno!|]


